X:905
T:Träskodansen efter Per Nilsson Dahlberg
T:(SvL Skåne nr. 195)
S:efter Per Nilsson Dahlberg
S:Svenska Låtar Skåne
B:Svenska Låtar Skåne
R:Vals
Z:Patrik Månsson, 2009-01-03
O:Nymö, Skåne
M:3/4
L:1/8
K:D
| a2 ag fe | de fg e2 | a2 ag fe | de fg e2 | dc de fd |
(gf) ed e2 | dc de fd | (gf) ed e2 | a2 ag fe | d2 d2 d2 |

(:musicend:)
Träskodansen utfördes på följande sätt. Tre stycken träskor ställdes upp i rad, så nära intill varandra att den dansande nätt och jämnt kunde passera emellan dem. Han skulle nu, dansande vals, beskriva en figur påminnande om en åtta utan att rubba träskorna. Den som dansade fel skulle för varje gång ta en sup. (SvL)

(:music:)
